rospo-icon-theme-classic-common/48x48/apps/com.github.jmoerman.go-for-it.svg

<svg height="48" width="48" xmlns="http://www.w3.org/2000/svg"><ellipse cx="-.707" cy="57.276" opacity=".2" rx="4.353" ry="3.613" transform="matrix(.70710678 -.70710678 .70710678 .70710678 0 0)"/><ellipse cy="56.569" fill="#4e4e4e" rx="4.353" ry="3.613" transform="matrix(.70710678 -.70710678 .70710678 .70710678 0 0)"/><path d="m24 5.0000004c-11.035307 0-20 8.9646896-20 19.9999996s8.964693 20.000003 20 20c11.035307 0 20.00001-8.96469 20-20 0-11.03531-8.964693-19.9999996-20-19.9999996z" opacity=".2"/><path d="m24 4.0000004c-11.035307 0-20 8.9646896-20 19.9999996s8.964693 20.000003 20 20c11.035307 0 20.00001-8.96469 20-20 0-11.03531-8.964693-19.9999996-20-19.9999996z" fill="#707070"/><path d="m24 4c-11.035307 0-20 8.96469-20 20 0 .167832.0075959.33315.0117188.5.2669641-10.803883 9.1208062-19.5 19.9882812-19.5s19.721317 8.696117 19.988281 19.5c.004123-.16685.011719-.332168.011719-.5 0-11.03531-8.964693-20-20-20z" fill="#fff" opacity=".1"/><path d="m24.000001 8.0000004c-9.380014 0-17.0000009 7.6199846-17.0000009 16.9999986 0 9.380015 7.6199869 17.000003 17.0000009 17.000001 9.380012 0 17.000005-7.619986 16.999999-17.000001 0-9.380014-7.619987-16.9999986-16.999999-16.9999986z" opacity=".2"/><path d="m24.000001 7.0000004c-9.380014 0-17.0000009 7.6199846-17.0000009 16.9999986 0 9.380015 7.6199869 17.000003 17.0000009 17.000001 9.380012 0 17.000005-7.619986 16.999999-17.000001 0-9.380014-7.619987-16.9999986-16.999999-16.9999986z" fill="#f7f7f7"/><path d="m24 21c-2.207062 0-4 1.792938-4 4 0 2.207061 1.792938 4 4 4 2.207061 0 4-1.792939 4-4 0-2.207062-1.792939-4-4-4z" opacity=".2"/><path d="m43.442946 5.5829719c.783474.7834744.783474 2.0449529 0 2.8284272l-18.127803 18.1278029-.652979-.213894c-1.052949-.344911-.496965 2.207623-1.28044 1.424149-.783474-.783475-1.341801-1.220248-.990712-2.271152l.838738-2.510564 17.384769-17.3847691c.783474-.7834743 2.044952-.7834743 2.828427 0z" opacity=".1"/><path d="m43.442946 4.5832639c.783474.7834744.783474 2.0449529 0 2.8284272l-18.127803 18.1278029-.652979-.213894c-1.052949-.344911-.496965 2.207623-1.28044 1.424149-.783474-.783475-1.341801-1.220248-.990712-2.271152l.838738-2.510564 17.384769-17.3847691c.783474-.7834743 2.044952-.7834743 2.828427 0z" fill="#30b630"/><path d="m11.269695 17.997963c-.554.959556-.227506 2.178051.73205 2.732051l12.633555 7.293986.454388-1.136091c.411463-1.028768.877741.475183 1.431741-.484373s-.724848.06763-.422453-.998305l.281542-.992432-12.378772-7.146887c-.959557-.554-2.178051-.227505-2.732051.732051z" opacity=".1"/><path d="m11.269695 16.998255c-.554.959556-.227506 2.178051.73205 2.732051l12.633555 7.293986.454388-1.136091c.411463-1.028768.877741.475183 1.431741-.484373s-.724848.06763-.422453-.998305l.281542-.992432-12.378772-7.146887c-.959557-.554-2.178051-.227505-2.732051.732051z" fill="#30b630"/><path d="m24 20c-2.207062 0-4 1.792938-4 4 0 2.207061 1.792938 4 4 4 2.207061 0 4-1.792939 4-4 0-2.207062-1.792939-4-4-4z" fill="#707070"/></svg>

<svg xmlns="http://www.w3.org/2000/svg" width="48" height="48" version="1.1">
 <g>
  <ellipse cx="-.707" cy="57.276" rx="4.353" ry="3.613" transform="matrix(0.70710678,-0.70710678,0.70710678,0.70710678,0,0)" style="opacity:0.2"/>
  <ellipse style="fill:#4e4e4e" cx="0" cy="56.569" rx="4.353" ry="3.613" transform="matrix(0.70710678,-0.70710678,0.70710678,0.70710678,0,0)"/>
  <path style="opacity:0.2" d="M 24,5.0000004 C 12.964693,5.0000004 4,13.96469 4,25 4,36.03531 12.964693,45.000003 24,45 35.035307,45 44.00001,36.03531 44,25 44,13.96469 35.035307,5.0000004 24,5.0000004 Z"/>
  <path d="M 24,4.0000004 C 12.964693,4.0000004 4,12.96469 4,24 4,35.03531 12.964693,44.000003 24,44 35.035307,44 44.00001,35.03531 44,24 44,12.96469 35.035307,4.0000004 24,4.0000004 Z" style="fill:#707070"/>
  <path style="fill:#ffffff;opacity:0.1" d="M 24 4 C 12.964693 4 4 12.96469 4 24 C 4 24.167832 4.0075959 24.33315 4.0117188 24.5 C 4.2786829 13.696117 13.132525 5 24 5 C 34.867475 5 43.721317 13.696117 43.988281 24.5 C 43.992404 24.33315 44 24.167832 44 24 C 44 12.96469 35.035307 4 24 4 z"/>
  <path style="opacity:0.2" d="m 24.000001,8.0000004 c -9.380014,0 -17.0000009,7.6199846 -17.0000009,16.9999986 0,9.380015 7.6199869,17.000003 17.0000009,17.000001 C 33.380013,42 41.000006,34.380014 41,24.999999 41,15.619985 33.380013,8.0000004 24.000001,8.0000004 Z"/>
  <path d="m 24.000001,7.0000004 c -9.380014,0 -17.0000009,7.6199846 -17.0000009,16.9999986 0,9.380015 7.6199869,17.000003 17.0000009,17.000001 C 33.380013,41 41.000006,33.380014 41,23.999999 41,14.619985 33.380013,7.0000004 24.000001,7.0000004 Z" style="fill:#f7f7f7"/>
  <path d="m 24,21 c -2.207062,0 -4,1.792938 -4,4 0,2.207061 1.792938,4 4,4 2.207061,0 4,-1.792939 4,-4 0,-2.207062 -1.792939,-4 -4,-4 z" style="opacity:0.2"/>
  <path d="m 43.442946,5.5829719 c 0.783474,0.7834744 0.783474,2.0449529 0,2.8284272 L 25.315143,26.539202 24.662164,26.325308 c -1.052949,-0.344911 -0.496965,2.207623 -1.28044,1.424149 -0.783474,-0.783475 -1.341801,-1.220248 -0.990712,-2.271152 L 23.22975,22.967741 40.614519,5.5829719 c 0.783474,-0.7834743 2.044952,-0.7834743 2.828427,0 z" style="opacity:0.1"/>
  <path style="fill:#30b630" d="m 43.442946,4.5832639 c 0.783474,0.7834744 0.783474,2.0449529 0,2.8284272 L 25.315143,25.539494 24.662164,25.3256 c -1.052949,-0.344911 -0.496965,2.207623 -1.28044,1.424149 -0.783474,-0.783475 -1.341801,-1.220248 -0.990712,-2.271152 L 23.22975,21.968033 40.614519,4.5832639 c 0.783474,-0.7834743 2.044952,-0.7834743 2.828427,0 z"/>
  <path d="m 11.269695,17.997963 c -0.554,0.959556 -0.227506,2.178051 0.73205,2.732051 L 24.6353,28.024 25.089688,26.887909 c 0.411463,-1.028768 0.877741,0.475183 1.431741,-0.484373 0.554,-0.959556 -0.724848,0.06763 -0.422453,-0.998305 l 0.281542,-0.992432 -12.378772,-7.146887 c -0.959557,-0.554 -2.178051,-0.227505 -2.732051,0.732051 z" style="opacity:0.1"/>
  <path style="fill:#30b630" d="m 11.269695,16.998255 c -0.554,0.959556 -0.227506,2.178051 0.73205,2.732051 l 12.633555,7.293986 0.454388,-1.136091 c 0.411463,-1.028768 0.877741,0.475183 1.431741,-0.484373 0.554,-0.959556 -0.724848,0.06763 -0.422453,-0.998305 l 0.281542,-0.992432 -12.378772,-7.146887 c -0.959557,-0.554 -2.178051,-0.227505 -2.732051,0.732051 z"/>
  <path style="fill:#707070" d="m 24,20 c -2.207062,0 -4,1.792938 -4,4 0,2.207061 1.792938,4 4,4 2.207061,0 4,-1.792939 4,-4 0,-2.207062 -1.792939,-4 -4,-4 z"/>
 </g>
</svg>
